small/extra/status/standard/audio-volume-high.svg

<?xml version="1.0" encoding="UTF-8" standalone="no"?>
<svg
   xmlns:dc="http://purl.org/dc/elements/1.1/"
   xmlns:cc="http://creativecommons.org/ns#"
   xmlns:rdf="http://www.w3.org/1999/02/22-rdf-syntax-ns#"
   xmlns:svg="http://www.w3.org/2000/svg"
   xmlns="http://www.w3.org/2000/svg"
   id="svg2"
   viewBox="0 0 512 512"
   height="100%"
   width="100%"
   version="1.1">
  <metadata
     id="metadata106">
    <rdf:RDF>
      <cc:Work
         rdf:about="">
        <dc:format>image/svg+xml</dc:format>
        <dc:type
           rdf:resource="http://purl.org/dc/dcmitype/StillImage" />
        <dc:title />
      </cc:Work>
    </rdf:RDF>
  </metadata>
  <defs
     id="defs104" />
  <rect
     style="fill:#ef6a47"
     id="rect4"
     y="-3.828125e-06"
     x="1.6015624e-06"
     rx="25.988001"
     height="512"
     width="512" />
  <path
     id="path4757"
     d="m 229.71874,70.93749 c -1.23702,0.11758 -2.5386,0.35892 -3.875,0.71875 1.33639,-0.35983 2.63799,-0.60117 3.875,-0.71875 z m -7.75,2.09375 c -0.94483,0.45987 -2.03905,1.13912 -3.71875,2.5 1.6797,-1.36088 2.77392,-2.04013 3.71875,-2.5 z m -3.71875,2.5 c -1.1198,0.90726 -2.48932,2.11857 -4.28125,3.75 1.79193,-1.63143 3.16145,-2.84274 4.28125,-3.75 z m 23.3125,-0.71875 c 2.02377,2.03417 3.59705,4.83824 4.625,8.375 1.1633,4.0048 1.29945,24.03765 1.09375,173.6875 -0.2504,182.79026 0.0247,171.55094 -4.78125,178.03125 -4.7102,6.34087 -12.36185,7.97422 -19.96875,4.28125 l -0.0312,0 c -4.26919,-2.08674 -7.41229,-5.08156 -74.125,-70.65625 l -28.37505,-27.875 0,-155.40625 -10.3125,-10.3125 0,162.09375 -54.21875,0 c -4.01205,0 -7.63582,-1.60457 -10.25,-4.21875 l 179.1875,179.1875 261.59375,0 c 14.39735,0 26,-11.60265 26,-26 l 0,-284.15625 -105.78125,-105.75 c 40.01721,41.43029 64.78125,97.70334 64.78125,159.84375 0,66.30482 -28.1995,125.97358 -73,168.03125 l -29.84375,-31.90625 c 36.29509,-34.03016 58.96875,-82.41354 58.96875,-136.09375 0,-11.50396 -1.03951,-22.75905 -3.03125,-33.6875 l -74.875,-74.875 c -0.2865,-0.2865 -0.58245,-0.56338 -0.875,-0.84375 28.31071,27.86182 45.90625,66.57903 45.90625,109.4375 0,44.25199 -18.77171,84.07968 -48.6875,112.09375 l -29.84375,-32.21875 c 21.2954,-20.01213 34.625,-48.37689 34.625,-79.90625 0,-31.52496 -13.3401,-59.86486 -34.625,-79.90625 l 13.03125,-14.0625 -87.1875,-87.1875 z m -38.875,15.125 c -9.95519,9.60985 -25.41366,24.80844 -50.125,49.09375 24.71134,-24.28531 40.16981,-39.4839 50.125,-49.09375 z m 165.46875,29.90625 8.03125,8.03125 c -2.5975,-2.74851 -5.27206,-5.44434 -8.03125,-8.03125 z m -22.59375,23.96875 0,0.0625 c 0.60929,0.57059 1.21254,1.16967 1.8125,1.75 l -1.8125,-1.8125 z m 56.53125,18.75 c 0.54298,0.93716 1.09796,1.89636 1.625,2.84375 -0.53077,-0.95431 -1.07805,-1.89982 -1.625,-2.84375 z m -346.625,12.375 c -1.5045,0 -2.95112,0.23518 -4.3125,0.65625 1.36139,-0.42107 2.808,-0.65625 4.3125,-0.65625 z m -4.3125,0.65625 c -0.90759,0.28071 -1.77352,0.64965 -2.59375,1.09375 0.82023,-0.4441 1.68615,-0.81304 2.59375,-1.09375 z m -3.78125,1.8125 c -0.7758,0.52297 -1.49833,1.12124 -2.15625,1.78125 0.65355,-0.65355 1.38683,-1.26258 2.15625,-1.78125 z m 244.34375,21.65625 c 15.5915,14.05315 25.6875,34.26154 25.6875,56.90625 10e-5,22.67457 -10.10245,42.86263 -25.71875,56.90625 l -29.15625,-32.5625 c 6.68101,-6.02448 11,-14.67102 11,-24.375 0,-9.70399 -4.31899,-18.28838 -11,-24.3125 l 29.1875,-32.5625 z"
     style="color:#000000;opacity:0.25;fill:#000000" />
  <path
     style="color:#000000;fill:#ffffff"
     d="m 231.53119,70.8547 c -2.37009,0.009 -4.9511,0.45977 -7.7187,1.4375 -5.1903,1.83884 -5.3531,1.98917 -71.25,66.74999 l -32.5625,32.03125 0,169.59375 28.375,27.875 c 66.71271,65.57469 69.85581,68.56951 74.125,70.65625 l 0.0312,0 c 7.6069,3.69297 15.2586,2.05962 19.9688,-4.28125 4.8059,-6.48031 4.5308,4.75901 4.7812,-178.03125 0.2057,-149.64985 0.0696,-169.6827 -1.0937,-173.68749 -2.3614,-8.12465 -7.5451,-12.36997 -14.6563,-12.34375 z m 166.4688,17.15625 -29.8438,31.84374 c 36.31589,34.04842 58.9688,82.43747 58.9688,136.125 0,53.68021 -22.67371,102.06359 -58.9688,136.09375 l 29.8438,31.90625 c 44.8005,-42.05767 73,-101.72643 73,-168.03125 0,-66.2831 -28.193,-125.89998 -73,-167.93749 z m -52.4375,55.81249 -29.8437,32.25 c 21.2849,20.04139 34.625,48.38129 34.625,79.90625 0,31.52936 -13.3296,59.89412 -34.625,79.90625 l 29.8437,32.21875 c 29.91579,-28.01407 48.6875,-67.84176 48.6875,-112.09375 0,-44.241 -18.7579,-84.09631 -48.6875,-112.125 l 0,-0.0625 z m -290.0937,31.125 c -8.024,0 -14.4688,6.4447 -14.4688,14.46875 l 0,133.15625 c 0,8.02405 6.4447,14.46875 14.4688,14.46875 l 54.2187,0 0,-162.09375 -54.2187,0 z m 236.25,24.125 -29.1876,32.5625 c 6.68101,6.02412 11,14.60851 11,24.3125 0,9.70398 -4.31899,18.35052 -11,24.375 l 29.1563,32.5625 c 15.6163,-14.04362 25.7188,-34.23168 25.7187,-56.90625 0,-22.64471 -10.0959,-42.8531 -25.6874,-56.90625 z"
     id="path3069" />
</svg>

<?xml version="1.0" encoding="UTF-8" standalone="no"?>
<!-- Created with Inkscape (http://www.inkscape.org/) -->

<svg
   xmlns:dc="http://purl.org/dc/elements/1.1/"
   xmlns:cc="http://creativecommons.org/ns#"
   xmlns:rdf="http://www.w3.org/1999/02/22-rdf-syntax-ns#"
   xmlns:svg="http://www.w3.org/2000/svg"
   xmlns="http://www.w3.org/2000/svg"
   xmlns:sodipodi="http://sodipodi.sourceforge.net/DTD/sodipodi-0.dtd"
   xmlns:inkscape="http://www.inkscape.org/namespaces/inkscape"
   version="1.1"
   width="100%"
   height="100%"
   viewBox="0 0 512 512"
   id="svg2"
   inkscape:version="0.48.5 r10040"
   sodipodi:docname="audio-volume-high.svg">
  <sodipodi:namedview
     pagecolor="#ffffff"
     bordercolor="#666666"
     borderopacity="1"
     objecttolerance="10"
     gridtolerance="10"
     guidetolerance="10"
     inkscape:pageopacity="0"
     inkscape:pageshadow="2"
     inkscape:window-width="1307"
     inkscape:window-height="748"
     id="namedview31"
     showgrid="false"
     inkscape:zoom="0.4609375"
     inkscape:cx="365.52521"
     inkscape:cy="191.49068"
     inkscape:window-x="57"
     inkscape:window-y="-3"
     inkscape:window-maximized="1"
     inkscape:current-layer="svg2" />
  <metadata
     id="metadata60">
    <rdf:RDF>
      <cc:Work
         rdf:about="">
        <dc:format>image/svg+xml</dc:format>
        <dc:type
           rdf:resource="http://purl.org/dc/dcmitype/StillImage" />
      </cc:Work>
    </rdf:RDF>
  </metadata>
  <defs
     id="defs58" />
  <rect
     width="512"
     height="512"
     rx="25.988001"
     x="0"
     y="0"
     id="rect4"
     style="fill:#ef6a47" />
  <text
     x="137.67999"
     y="194.35001"
     id="text8"
     style="font-size:129.22999573px;line-height:125%;letter-spacing:0;word-spacing:0;font-family:Gentium Book Basic">
    <tspan
       x="137.67999"
       y="194.35001"
       id="tspan10" />
  </text>
  <text
     x="231.39"
     y="430.76001"
     transform="scale(4.0128,0.2492)"
     id="text12"
     style="font-size:46.95399857px;text-anchor:middle;font-family:Arial" />
  <text
     x="718.95001"
     y="114.35"
     id="text14"
     style="font-size:129.22999573px;line-height:125%;letter-spacing:0;word-spacing:0;font-family:Gentium Book Basic">
    <tspan
       x="718.95001"
       y="114.35"
       id="tspan16" />
  </text>
  <text
     x="376.23999"
     y="109.72"
     transform="scale(4.0128,0.2492)"
     id="text18"
     style="font-size:46.95399857px;text-anchor:middle;font-family:Arial" />
  <text
     x="-352.63"
     y="-66.905998"
     id="text20"
     style="font-size:129.22999573px;line-height:125%;letter-spacing:0;word-spacing:0;font-family:Gentium Book Basic">
    <tspan
       x="-352.63"
       y="-66.905998"
       id="tspan22" />
  </text>
  <text
     x="109.2"
     y="-617.63"
     transform="scale(4.0128,0.2492)"
     id="text24"
     style="font-size:46.95399857px;text-anchor:middle;font-family:Arial" />
  <text
     x="745.41998"
     y="-283.38"
     id="text26"
     style="font-size:129.22999573px;line-height:125%;letter-spacing:0;word-spacing:0;font-family:Gentium Book Basic">
    <tspan
       x="745.41998"
       y="-283.38"
       id="tspan28" />
  </text>
  <text
     x="382.84"
     y="-1486.29"
     transform="scale(4.0128,0.2492)"
     id="text30"
     style="font-size:46.95399857px;text-anchor:middle;font-family:Arial" />
  <text
     x="1326.6899"
     y="-363.38"
     id="text32"
     style="font-size:129.22999573px;line-height:125%;letter-spacing:0;word-spacing:0;font-family:Gentium Book Basic">
    <tspan
       x="1326.6899"
       y="-363.38"
       id="tspan34" />
  </text>
  <text
     x="527.69"
     y="-1807.3199"
     transform="scale(4.0128,0.2492)"
     id="text36"
     style="font-size:46.95399857px;text-anchor:middle;font-family:Arial" />
  <text
     x="937.57001"
     y="-835.78003"
     id="text38"
     style="font-size:129.22999573px;line-height:125%;letter-spacing:0;word-spacing:0;font-family:Gentium Book Basic">
    <tspan
       x="937.57001"
       y="-835.78003"
       id="tspan40" />
  </text>
  <text
     x="430.72"
     y="-3702.96"
     transform="scale(4.0128,0.2492)"
     id="text42"
     style="font-size:46.95399857px;text-anchor:middle;font-family:Arial" />
  <text
     x="1518.83"
     y="-915.78998"
     id="text44"
     style="font-size:129.22999573px;line-height:125%;letter-spacing:0;word-spacing:0;font-family:Gentium Book Basic">
    <tspan
       x="1518.83"
       y="-915.78998"
       id="tspan46" />
  </text>
  <text
     x="575.57001"
     y="-4024"
     transform="scale(4.0128,0.2492)"
     id="text48"
     style="font-size:46.95399857px;text-anchor:middle;font-family:Arial" />
  <text
     x="-313.97"
     y="498.92999"
     id="text50"
     style="font-size:208.33000183px;line-height:125%;letter-spacing:0;word-spacing:0;font-family:Gentium Book Basic">
    <tspan
       x="-313.97"
       y="498.92999"
       id="tspan52" />
  </text>
  <path
     style="color:#000000;fill:#000000;opacity:0.25"
     d="M 229.71875 70.9375 C 228.48173 71.055078 227.18015 71.296417 225.84375 71.65625 C 227.18014 71.296417 228.48174 71.055078 229.71875 70.9375 z M 221.96875 73.03125 C 221.02392 73.491119 219.9297 74.170368 218.25 75.53125 C 219.9297 74.170369 221.02392 73.491119 221.96875 73.03125 z M 218.25 75.53125 C 217.1302 76.438504 215.76068 77.64982 213.96875 79.28125 C 215.76068 77.64982 217.1302 76.438504 218.25 75.53125 z M 241.5625 74.8125 C 243.58627 76.846666 245.15955 79.650737 246.1875 83.1875 C 247.3508 87.192293 247.48695 107.22515 247.28125 256.875 C 247.03085 439.66526 247.3059 428.42594 242.5 434.90625 C 237.7898 441.24712 230.13815 442.88047 222.53125 439.1875 L 222.5 439.1875 C 218.23081 437.10076 215.08771 434.10594 148.375 368.53125 L 120 340.65625 L 120 185.25 L 109.6875 174.9375 L 109.6875 337.03125 L 55.46875 337.03125 C 51.4567 337.03125 47.832937 335.42668 45.21875 332.8125 L 224.40625 512 L 486 512 C 500.39735 512 512 500.39735 512 486 L 512 201.84375 L 406.21875 96.09375 C 446.23596 137.52404 471 193.79709 471 255.9375 C 471 322.24232 442.8005 381.91108 398 423.96875 L 368.15625 392.0625 C 404.45134 358.03234 427.125 309.64896 427.125 255.96875 C 427.125 244.46479 426.08549 233.2097 424.09375 222.28125 L 349.21875 147.40625 C 348.93225 147.11975 348.6363 146.84287 348.34375 146.5625 C 376.65446 174.42432 394.25 213.14153 394.25 256 C 394.25 300.25199 375.47829 340.07968 345.5625 368.09375 L 315.71875 335.875 C 337.01415 315.86287 350.34375 287.49811 350.34375 255.96875 C 350.34375 224.44379 337.00365 196.10389 315.71875 176.0625 L 328.75 162 L 241.5625 74.8125 z M 202.6875 89.9375 C 192.73231 99.547345 177.27384 114.74594 152.5625 139.03125 C 177.27384 114.74594 192.73231 99.547344 202.6875 89.9375 z M 368.15625 119.84375 L 376.1875 127.875 C 373.59 125.12649 370.91544 122.43066 368.15625 119.84375 z M 345.5625 143.8125 L 345.5625 143.875 C 346.17179 144.44559 346.77504 145.04467 347.375 145.625 L 345.5625 143.8125 z M 402.09375 162.5625 C 402.63673 163.49966 403.19171 164.45886 403.71875 165.40625 C 403.18798 164.45194 402.6407 163.50643 402.09375 162.5625 z M 55.46875 174.9375 C 53.96425 174.9375 52.517637 175.17268 51.15625 175.59375 C 52.517639 175.17268 53.96425 174.9375 55.46875 174.9375 z M 51.15625 175.59375 C 50.248659 175.87446 49.382728 176.2434 48.5625 176.6875 C 49.38273 176.2434 50.248657 175.87446 51.15625 175.59375 z M 47.375 177.40625 C 46.599198 177.92922 45.876669 178.52749 45.21875 179.1875 C 45.8723 178.53395 46.605578 177.92492 47.375 177.40625 z M 291.71875 199.0625 C 307.31025 213.11565 317.40625 233.32404 317.40625 255.96875 C 317.40635 278.64332 307.3038 298.83138 291.6875 312.875 L 262.53125 280.3125 C 269.21226 274.28802 273.53125 265.64148 273.53125 255.9375 C 273.53125 246.23351 269.21226 237.64912 262.53125 231.625 L 291.71875 199.0625 z "
     id="path4757" />
  <path
     inkscape:connector-curvature="0"
     id="path3069"
     d="m 231.5312,70.854704 c -2.37009,0.0087 -4.9511,0.459778 -7.7187,1.4375 -5.1903,1.838841 -5.3531,1.989171 -71.25,66.749996 L 120,171.07345 l 0,169.59375 28.375,27.875 c 66.71271,65.57469 69.85581,68.56951 74.125,70.65625 l 0.0312,0 c 7.6069,3.69297 15.2586,2.05962 19.9688,-4.28125 4.8059,-6.48031 4.5308,4.75901 4.7812,-178.03125 0.2057,-149.64985 0.0696,-169.682703 -1.0937,-173.687496 -2.3614,-8.124642 -7.5451,-12.369966 -14.6563,-12.34375 z M 398,88.010954 368.1562,119.8547 c 36.31589,34.04842 58.9688,82.43747 58.9688,136.125 0,53.68021 -22.67371,102.06359 -58.9688,136.09375 L 398,423.9797 c 44.8005,-42.05767 73,-101.72643 73,-168.03125 0,-66.2831 -28.193,-125.89998 -73,-167.937496 z m -52.4375,55.812496 -29.8437,32.25 c 21.2849,20.04139 34.625,48.38129 34.625,79.90625 0,31.52936 -13.3296,59.89412 -34.625,79.90625 l 29.8437,32.21875 c 29.91579,-28.01407 48.6875,-67.84176 48.6875,-112.09375 0,-44.241 -18.7579,-84.09631 -48.6875,-112.125 l 0,-0.0625 z m -290.093701,31.125 c -8.024,0 -14.4688,6.4447 -14.4688,14.46875 l 0,133.15625 c 0,8.02405 6.4447,14.46875 14.4688,14.46875 l 54.218701,0 0,-162.09375 -54.218701,0 z m 236.250001,24.125 -29.1876,32.5625 c 6.68101,6.02412 11,14.60851 11,24.3125 0,9.70398 -4.31899,18.35052 -11,24.375 l 29.1563,32.5625 c 15.6163,-14.04362 25.7188,-34.23168 25.7187,-56.90625 0,-22.64471 -10.0959,-42.8531 -25.6874,-56.90625 z"
     style="color:#000000;fill:#ffffff" />
</svg>
